48x48/apps/komodo-edit.svg

<svg xmlns="http://www.w3.org/2000/svg" width="48" height="48" version="1"><path style="opacity:.2" d="M6 33.064v1a1.92 1.874 0 0 0 .959 1.621l16.082 9.065a1.92 1.874 0 0 0 1.918 0l16.08-9.065A1.92 1.874 0 0 0 42 34.064v-1a1.92 1.874 0 0 1-.961 1.621l-16.08 9.064a1.92 1.874 0 0 1-1.918 0L6.959 34.684A1.92 1.874 0 0 1 6 33.063z"/><path style="fill:#989898" d="M24.045 4a1.92 1.874 0 0 0-1.005.253L6.96 13.315A1.92 1.874 0 0 0 6 14.938v18.126a1.92 1.874 0 0 0 .96 1.623L23.04 43.75a1.92 1.874 0 0 0 1.919 0l16.079-9.065A1.92 1.874 0 0 0 42 33.064V14.937a1.92 1.874 0 0 0-.961-1.623L24.96 4.252A1.92 1.874 0 0 0 24.045 4z"/><path style="opacity:.2" d="M17.837 36.891c-.06-.06-.109-.28-.109-.49 0-.467-.255-.495-.491-.054-.28.522-.509.378-.457-.286.037-.478-.006-.599-.198-.549-1.094.281-1.1.272-.368-.525.782-.851.925-1.364.327-1.176-.202.064-.791.155-1.308.202-1.593.146-3.233-.887-3.233-2.037 0-.485.847-1.164 2.065-1.656.619-.251 1.145-.559 1.168-.685.023-.126-.219-.397-.537-.601-.731-.47-1.14-1.129-1.571-2.53-.498-1.615-.388-4.406.246-6.243 2.198-6.372 8.585-9.014 14.613-6.046 3.858 1.9 6.645 4.909 7.253 7.829.164.79.148.96-.145 1.534-.387.756-1.25 1.664-1.582 1.664-.127 0-.433-.239-.68-.531-.645-.764-3.555-3.64-4.768-4.712l-1.035-.914.115-.918c.11-.878.097-.926-.309-1.11-.617-.281-1.478-.006-1.55.495-.041.284.171.611.813 1.261l.868.876-.977.003c-1.772.004-2.115.284-1.242 1.016.646.543.871 1.02.814 1.728l-.048.601.773-.039c.594-.031.773.017.773.204 0 .134-.074.244-.164.244-.272 0-.183.461.123.642.222.13.239.199.076.307-.115.076-.163.261-.105.411.158.412-.167.338-1.434-.327-1.046-.548-1.178-.676-1.545-1.505-.651-1.468-1.206-1.86-1.206-.851 0 .249-.155 1.035-.345 1.746-.604 2.262-.675 2.026.612 2.027 1.289.001 2.221.218 2.529.588.226.271.253 1.015.072 1.976-.105.557-.093.575.308.475.391-.098.411-.074.318.387-.095.475-.078.493.495.493.326 0 .593.073.593.163 0 .09-.059.163-.132.163-.073 0-.275.104-.448.23-.31.226-.31.237-.006.572.354.39.312.405-.969.346-.967-.044-1.17-.179-1.315-.873-.168-.809-.543-1.315-.809-1.094-.506.419.473 2.146 1.691 2.982 1.721 1.181 3.684 1.458 5.49.774 1.229-.465 3.012-2.191 3.996-3.868 1.096-1.868 1.336-1.836.937.128-.663 3.266-2.912 5.722-6.213 6.785-1.059.341-1.647.426-2.958.428-2.733.005-4.297-.762-6.827-3.347-1.593-1.626-2.067-1.751-1.253-.33l.522.91-.528 1.608c-.29.884-.548 1.608-.572 1.608-.024 0-.093-.049-.153-.109zm.726-8.809c-1.419-2.833-1.735-3.974-1.735-6.27 0-1.723.037-1.947.439-2.709 1.219-2.305 3.825-3.652 7.076-3.658 1.525-.003 3.251.266 3.941.613.851.427 2.064 1.538 3.303 3.024 1.451 1.739 1.569 2.07.506 1.424-.294-.179-.695-.326-.89-.327-.629-.001-.862-.183-.97-.758-.078-.414-.305-.716-.854-1.134-1.239-.944-1.711-.519-.855.77.722 1.088 4.701 4.911 5.044 4.847.5-.093.882-1.093.801-2.094-.137-1.696-1.334-3.458-3.205-4.721-1.707-1.152-4.944-2.624-6.403-2.911-4.648-.914-9.184 1.977-9.852 6.278-.399 2.576 1.028 5.981 3.701 8.829.443.473.833.832.866.799.034-.033-.377-.935-.912-2.003z"/><path style="fill:#f4f4f7" d="M17.837 35.891c-.06-.06-.109-.28-.109-.49 0-.467-.255-.495-.491-.054-.28.522-.509.378-.457-.286.037-.478-.006-.599-.198-.549-1.094.281-1.1.272-.368-.525.782-.851.925-1.364.327-1.176-.202.064-.791.155-1.308.202-1.593.146-3.233-.887-3.233-2.037 0-.485.847-1.164 2.065-1.656.619-.251 1.145-.559 1.168-.685.023-.126-.219-.397-.537-.601-.731-.47-1.14-1.129-1.571-2.53-.498-1.615-.388-4.406.246-6.243 2.198-6.372 8.585-9.014 14.613-6.046 3.858 1.9 6.645 4.909 7.253 7.829.164.79.148.96-.145 1.534-.387.756-1.25 1.664-1.582 1.664-.127 0-.433-.239-.68-.531-.645-.764-3.555-3.64-4.768-4.712l-1.035-.914.115-.918c.11-.878.097-.926-.309-1.11-.617-.281-1.478-.006-1.55.495-.041.284.171.611.813 1.261l.868.876-.977.003c-1.772.004-2.115.284-1.242 1.016.646.543.871 1.02.814 1.728l-.048.601.773-.039c.594-.031.773.017.773.204 0 .134-.074.244-.164.244-.272 0-.183.461.123.642.222.13.239.199.076.307-.115.076-.163.261-.105.411.158.412-.167.338-1.434-.327-1.046-.548-1.178-.676-1.545-1.505-.651-1.468-1.206-1.86-1.206-.851 0 .249-.155 1.035-.345 1.746-.604 2.262-.675 2.026.612 2.027 1.289.001 2.221.218 2.529.588.226.271.253 1.015.072 1.976-.105.557-.093.575.308.475.391-.098.411-.074.318.387-.095.475-.078.493.495.493.326 0 .593.073.593.163 0 .09-.059.163-.132.163-.073 0-.275.104-.448.23-.31.226-.31.237-.006.572.354.39.312.405-.969.346-.967-.044-1.17-.179-1.315-.873-.168-.809-.543-1.315-.809-1.094-.506.419.473 2.146 1.691 2.982 1.721 1.181 3.684 1.458 5.49.774 1.229-.465 3.012-2.191 3.996-3.868 1.096-1.868 1.336-1.836.937.128-.663 3.266-2.912 5.722-6.213 6.785-1.059.341-1.647.426-2.958.428-2.733.005-4.297-.762-6.827-3.347-1.593-1.626-2.067-1.751-1.253-.33l.522.91-.528 1.608c-.29.884-.548 1.608-.572 1.608-.024 0-.093-.049-.153-.109zm.726-8.809c-1.419-2.833-1.735-3.974-1.735-6.27 0-1.723.037-1.947.439-2.709 1.219-2.305 3.825-3.652 7.076-3.658 1.525-.003 3.251.266 3.941.613.851.427 2.064 1.538 3.303 3.024 1.451 1.739 1.569 2.07.506 1.424-.294-.179-.695-.326-.89-.327-.629-.001-.862-.183-.97-.758-.078-.414-.305-.716-.854-1.134-1.239-.944-1.711-.519-.855.77.722 1.088 4.701 4.911 5.044 4.847.5-.093.882-1.093.801-2.094-.137-1.696-1.334-3.458-3.205-4.721-1.707-1.152-4.944-2.624-6.403-2.911-4.648-.914-9.184 1.977-9.852 6.278-.399 2.576 1.028 5.981 3.701 8.829.443.473.833.832.866.799.034-.033-.377-.935-.912-2.003z"/><path style="opacity:.1;fill:#f4f4f7" d="M24.045 4a1.92 1.874 0 0 0-1.004.252L6.959 13.314A1.92 1.874 0 0 0 6 14.938v1a1.92 1.874 0 0 1 .959-1.624l16.082-9.062A1.92 1.874 0 0 1 24.045 5a1.92 1.874 0 0 1 .914.252l16.08 9.062A1.92 1.874 0 0 1 42 15.938v-1a1.92 1.874 0 0 0-.961-1.624l-16.08-9.062A1.92 1.874 0 0 0 24.045 4z"/></svg>

<svg xmlns="http://www.w3.org/2000/svg" width="48" height="48" version="1">
 <path style="opacity:0.2" d="M 6,33.064 V 34.064 A 1.92,1.8744 0 0 0 6.959,35.685 L 23.041,44.75 A 1.92,1.8744 0 0 0 24.959,44.75 L 41.039,35.685 A 1.92,1.8744 0 0 0 42,34.064 V 33.064 A 1.92,1.8744 0 0 1 41.039,34.685 L 24.959,43.749 A 1.92,1.8744 0 0 1 23.041,43.749 L 6.959,34.684 A 1.92,1.8744 0 0 1 6,33.063 Z"/>
 <path style="fill:#989898" d="M 24.045,4.0009 A 1.92,1.8744 0 0 0 23.04,4.2526 L 6.96,13.315 A 1.92,1.8744 0 0 0 6,14.938 V 33.064 A 1.92,1.8744 0 0 0 6.9596,34.687 L 23.041,43.75 A 1.92,1.8744 0 0 0 24.96,43.75 L 41.039,34.685 A 1.92,1.8744 0 0 0 42,33.064 V 14.937 A 1.92,1.8744 0 0 0 41.039,13.314 L 24.96,4.2521 A 1.92,1.8744 0 0 0 24.045,4.0004 Z"/>
 <path style="opacity:0.2" d="M 17.837,36.891 C 17.777,36.831 17.728,36.611 17.728,36.401 17.728,35.934 17.473,35.906 17.237,36.347 16.957,36.869 16.728,36.725 16.78,36.061 16.817,35.583 16.774,35.462 16.582,35.512 15.488,35.793 15.482,35.784 16.214,34.987 16.996,34.136 17.139,33.623 16.541,33.811 16.339,33.875 15.75,33.966 15.233,34.013 13.64,34.159 12,33.126 12,31.976 12,31.491 12.847,30.812 14.065,30.32 14.684,30.069 15.21,29.761 15.233,29.635 15.256,29.509 15.014,29.238 14.696,29.034 13.965,28.564 13.556,27.905 13.125,26.504 12.627,24.889 12.737,22.098 13.371,20.261 15.569,13.889 21.956,11.247 27.984,14.215 31.842,16.115 34.629,19.124 35.237,22.044 35.401,22.834 35.385,23.004 35.092,23.578 34.705,24.334 33.842,25.242 33.51,25.242 33.383,25.242 33.077,25.003 32.83,24.711 32.185,23.947 29.275,21.071 28.062,19.999 L 27.027,19.085 27.142,18.167 C 27.252,17.289 27.239,17.241 26.833,17.057 26.216,16.776 25.355,17.051 25.283,17.552 25.242,17.836 25.454,18.163 26.096,18.813 L 26.964,19.689 25.987,19.692 C 24.215,19.696 23.872,19.976 24.745,20.708 25.391,21.251 25.616,21.728 25.559,22.436 L 25.511,23.037 26.284,22.998 C 26.878,22.967 27.057,23.015 27.057,23.202 27.057,23.336 26.983,23.446 26.893,23.446 26.621,23.446 26.71,23.907 27.016,24.088 27.238,24.218 27.255,24.287 27.092,24.395 26.977,24.471 26.929,24.656 26.987,24.806 27.145,25.218 26.82,25.144 25.553,24.479 24.507,23.931 24.375,23.803 24.008,22.974 23.357,21.506 22.802,21.114 22.802,22.123 22.802,22.372 22.647,23.158 22.457,23.869 21.853,26.131 21.782,25.895 23.069,25.896 24.358,25.897 25.29,26.114 25.598,26.484 25.824,26.755 25.851,27.499 25.67,28.46 25.565,29.017 25.577,29.035 25.978,28.935 26.369,28.837 26.389,28.861 26.296,29.322 26.201,29.797 26.218,29.815 26.791,29.815 27.117,29.815 27.384,29.888 27.384,29.978 27.384,30.068 27.325,30.141 27.252,30.141 27.179,30.141 26.977,30.245 26.804,30.371 26.494,30.597 26.494,30.608 26.798,30.943 27.152,31.333 27.11,31.348 25.829,31.289 24.862,31.245 24.659,31.11 24.514,30.416 24.346,29.607 23.971,29.101 23.705,29.322 23.199,29.741 24.178,31.468 25.396,32.304 27.117,33.485 29.08,33.762 30.886,33.078 32.115,32.613 33.898,30.887 34.882,29.21 35.978,27.342 36.218,27.374 35.819,29.338 35.156,32.604 32.907,35.06 29.606,36.123 28.547,36.464 27.959,36.549 26.648,36.551 23.915,36.556 22.351,35.789 19.821,33.204 18.228,31.578 17.754,31.453 18.568,32.874 L 19.09,33.784 18.562,35.392 C 18.272,36.276 18.014,37 17.99,37 17.966,37 17.897,36.951 17.837,36.891 Z M 18.563,28.082 C 17.144,25.249 16.828,24.108 16.828,21.812 16.828,20.089 16.865,19.865 17.267,19.103 18.486,16.798 21.092,15.451 24.343,15.445 25.868,15.442 27.594,15.711 28.284,16.058 29.135,16.485 30.348,17.596 31.587,19.082 33.038,20.821 33.156,21.152 32.093,20.506 31.799,20.327 31.398,20.18 31.203,20.179 30.574,20.178 30.341,19.996 30.233,19.421 30.155,19.007 29.928,18.705 29.379,18.287 28.14,17.343 27.668,17.768 28.524,19.057 29.246,20.145 33.225,23.968 33.568,23.904 34.068,23.811 34.45,22.811 34.369,21.81 34.232,20.114 33.035,18.352 31.164,17.089 29.457,15.937 26.22,14.465 24.761,14.178 20.113,13.264 15.577,16.155 14.909,20.456 14.51,23.032 15.937,26.437 18.61,29.285 19.053,29.758 19.443,30.117 19.476,30.084 19.51,30.051 19.099,29.149 18.564,28.081 Z"/>
 <path style="fill:#f4f4f7" d="M 17.837,35.891 C 17.777,35.831 17.728,35.611 17.728,35.401 17.728,34.934 17.473,34.906 17.237,35.347 16.957,35.869 16.728,35.725 16.78,35.061 16.817,34.583 16.774,34.462 16.582,34.512 15.488,34.793 15.482,34.784 16.214,33.987 16.996,33.136 17.139,32.623 16.541,32.811 16.339,32.875 15.75,32.966 15.233,33.013 13.64,33.159 12,32.126 12,30.976 12,30.491 12.847,29.812 14.065,29.32 14.684,29.069 15.21,28.761 15.233,28.635 15.256,28.509 15.014,28.238 14.696,28.034 13.965,27.564 13.556,26.905 13.125,25.504 12.627,23.889 12.737,21.098 13.371,19.261 15.569,12.889 21.956,10.247 27.984,13.215 31.842,15.115 34.629,18.124 35.237,21.044 35.401,21.834 35.385,22.004 35.092,22.578 34.705,23.334 33.842,24.242 33.51,24.242 33.383,24.242 33.077,24.003 32.83,23.711 32.185,22.947 29.275,20.071 28.062,18.999 L 27.027,18.085 27.142,17.167 C 27.252,16.289 27.239,16.241 26.833,16.057 26.216,15.776 25.355,16.051 25.283,16.552 25.242,16.836 25.454,17.163 26.096,17.813 L 26.964,18.689 25.987,18.692 C 24.215,18.696 23.872,18.976 24.745,19.708 25.391,20.251 25.616,20.728 25.559,21.436 L 25.511,22.037 26.284,21.998 C 26.878,21.967 27.057,22.015 27.057,22.202 27.057,22.336 26.983,22.446 26.893,22.446 26.621,22.446 26.71,22.907 27.016,23.088 27.238,23.218 27.255,23.287 27.092,23.395 26.977,23.471 26.929,23.656 26.987,23.806 27.145,24.218 26.82,24.144 25.553,23.479 24.507,22.931 24.375,22.803 24.008,21.974 23.357,20.506 22.802,20.114 22.802,21.123 22.802,21.372 22.647,22.158 22.457,22.869 21.853,25.131 21.782,24.895 23.069,24.896 24.358,24.897 25.29,25.114 25.598,25.484 25.824,25.755 25.851,26.499 25.67,27.46 25.565,28.017 25.577,28.035 25.978,27.935 26.369,27.837 26.389,27.861 26.296,28.322 26.201,28.797 26.218,28.815 26.791,28.815 27.117,28.815 27.384,28.888 27.384,28.978 27.384,29.068 27.325,29.141 27.252,29.141 27.179,29.141 26.977,29.245 26.804,29.371 26.494,29.597 26.494,29.608 26.798,29.943 27.152,30.333 27.11,30.348 25.829,30.289 24.862,30.245 24.659,30.11 24.514,29.416 24.346,28.607 23.971,28.101 23.705,28.322 23.199,28.741 24.178,30.468 25.396,31.304 27.117,32.485 29.08,32.762 30.886,32.078 32.115,31.613 33.898,29.887 34.882,28.21 35.978,26.342 36.218,26.374 35.819,28.338 35.156,31.604 32.907,34.06 29.606,35.123 28.547,35.464 27.959,35.549 26.648,35.551 23.915,35.556 22.351,34.789 19.821,32.204 18.228,30.578 17.754,30.453 18.568,31.874 L 19.09,32.784 18.562,34.392 C 18.272,35.276 18.014,36 17.99,36 17.966,36 17.897,35.951 17.837,35.891 Z M 18.563,27.082 C 17.144,24.249 16.828,23.108 16.828,20.812 16.828,19.089 16.865,18.865 17.267,18.103 18.486,15.798 21.092,14.451 24.343,14.445 25.868,14.442 27.594,14.711 28.284,15.058 29.135,15.485 30.348,16.596 31.587,18.082 33.038,19.821 33.156,20.152 32.093,19.506 31.799,19.327 31.398,19.18 31.203,19.179 30.574,19.178 30.341,18.996 30.233,18.421 30.155,18.007 29.928,17.705 29.379,17.287 28.14,16.343 27.668,16.768 28.524,18.057 29.246,19.145 33.225,22.968 33.568,22.904 34.068,22.811 34.45,21.811 34.369,20.81 34.232,19.114 33.035,17.352 31.164,16.089 29.457,14.937 26.22,13.465 24.761,13.178 20.113,12.264 15.577,15.155 14.909,19.456 14.51,22.032 15.937,25.437 18.61,28.285 19.053,28.758 19.443,29.117 19.476,29.084 19.51,29.051 19.099,28.149 18.564,27.081 Z"/>
 <path style="opacity:0.1;fill:#f4f4f7" d="M 24.045,4.0004 A 1.92,1.8744 0 0 0 23.041,4.2524 L 6.959,13.314 A 1.92,1.8744 0 0 0 6,14.938 V 15.938 A 1.92,1.8744 0 0 1 6.959,14.314 L 23.041,5.2524 A 1.92,1.8744 0 0 1 24.045,5.0004 1.92,1.8744 0 0 1 24.959,5.2524 L 41.039,14.314 A 1.92,1.8744 0 0 1 42,15.938 V 14.938 A 1.92,1.8744 0 0 0 41.039,13.314 L 24.959,4.2524 A 1.92,1.8744 0 0 0 24.045,4.0004 Z"/>
</svg>
